X:1
T:O Deus, Ego Amo Te
T:XVIII Century Melody
T:Nicola A. Montani
T:Ed. Paul Thomas May
T:O Deus, Ego Amo Te
T:©
T:©
C:XVIII Century Melody
Z:Ed. Paul Thomas May
Z:©
%%score [ ( 1 2 ) 3 ]
L:1/8
Q:1/4=85
M:3/2
K:Ab
V:1 treble nm="Soprano" snm="S"
V:2 treble 
V:3 treble nm="Alto" snm="A"
V:1
 e4 A4 B4 | (c6 d2) e4 | (A4 d4) c4 | B12 | B4 c4 d4 | (e6 d2) c4 | e4 (e4 =d4) | e12 | c4 d4 e4 | %9
w: O De- us,|e- * go|a- * mo-|te,|Nec a- mo|te- * ut|sal- ves _|me,|Nec quod qui|
w: Ex cru- cis|li- * gno|ger- * mi-|nat,|Qui pec- tus|a- * mor|oc- cu- *|pat,|Ex pan- sis|
 f12 | (B2 c2) d4 c4 | B12 | e4 A4 B4 | (c6 d2) (e2 d2) | c4 B8 | A12 :| (A12 | A4) (B8 | B8) d4 | %19
w: te|non _ di- li-|gunt,|Æ- ter- no|i- * gne _|per- e-|unt.|A-|* men|_ A-|
w: un-|de _ bra- chi-|is,|Ad te a-|man- * dum _|ar- ri-|pes.||||
 c12 |] %20
w: men.|
w: |
V:2
 E4 F4 G4 | A8 (A2 G2) | (F4 G4) A4 | (A4 F4 G4) | G4 A4 A4 | (A4 G4) A4 | B4 (A4 B2 A2) | G12 | %8
w: ||||||||
w: ||||||||
 A4 B4 c4 | (A4 d2 c2 B2 A2) | G4 (F2 G2) A4 | (A4 G2 F2 G4) | A4 A4 G4 | A8 (G2 F2) | %14
w: ||||||
w: ||||||
 ((A4 A2) GF) G4 | A12 :| A4 (F8 | F8) (A4 | A4) G8 | A12 |] %20
w: per- * * * e-|unt.|A- *|* men|_ A-|men.|
w: ar- * * * ri-|pes.|||||
V:3
 E4 F4 E4 | (A,6 B,2) C4 | (D2 C2 B,4) (C2 D2) | E12 | E4 A4 F4 | (C4 E4) F4 | G4 (F4 B,4) | E12 | %8
w: O De- us,|e- * go|a- * * mo- *|te,|Nec a- mo|te- * ut|sal- ves _|me,|
w: Ex cru- cis|li- * gno|ger- * * mi- *|nat,|Qui pec- tus|a- * mor|oc- cu- *|pat,|
 A4 A4 A4 | D12 | E4 B,4 (C2 D2) | E12 | C4 F4 E4 | (A,6 B,2) (C2 D2) | E4 E8 |"^(""^)" [EA]12 :| %16
w: Nec quod qui|te|non di- li- *|gunt,|Æ- ter- no|i- * gne _|per- e-|unt.|
w: Ex pan- sis|un-|de bra- chi- *|is,|Ad te a-|man- * dum _|ar- ri-|pes.|
 (A4 F4 E4) | D12 | E12 | [A,E]12 |] %20
w: A- * *|men|A-|men.|
w: ||||

